src/components/Footer/images/logo-1.svg

<svg xmlns="http://www.w3.org/2000/svg" width="470" height="262" fill="none"><g fill="#2C2C2C" clip-path="url(#a)"><path d="M196.749 103.853h11.023l18.744 33.906 18.744-33.906h10.785v55.715h-8.994v-42.702l-16.436 29.569h-8.437l-16.436-29.569v42.702h-8.993v-55.715ZM285.056 160.563c-4.166 0-7.827-.922-10.984-2.766-3.157-1.844-5.618-4.397-7.382-7.661-1.765-3.263-2.647-7.004-2.646-11.222 0-4.271.862-8.052 2.586-11.342 1.725-3.29 4.119-5.863 7.184-7.721 3.064-1.857 6.586-2.785 10.566-2.786 3.952 0 7.355.936 10.207 2.806 2.852 1.871 5.047 4.491 6.587 7.86 1.538 3.37 2.307 7.323 2.308 11.859v2.467h-30.524c.557 3.397 1.93 6.07 4.119 8.019 2.189 1.951 4.955 2.926 8.297 2.925 2.68 0 4.988-.398 6.925-1.193 1.936-.796 3.754-2.003 5.452-3.622l4.776 5.85c-4.75 4.352-10.573 6.528-17.471 6.527Zm6.567-33.051c-1.885-1.923-4.352-2.885-7.403-2.885-2.971 0-5.459.981-7.461 2.945-2.004 1.963-3.271 4.603-3.801 7.919h21.888c-.265-3.396-1.34-6.056-3.223-7.979ZM314.387 125.423h-8.278v-7.363h8.278v-12.177h8.676v12.177h12.575v7.363h-12.575v18.664c0 3.104.53 5.319 1.591 6.646s2.878 1.99 5.453 1.99c1.14 0 2.108-.047 2.905-.139a53.707 53.707 0 0 0 2.626-.379v7.283c-1.09.315-2.2.555-3.323.717a26.112 26.112 0 0 1-3.88.278c-9.366 0-14.048-5.12-14.048-15.361v-19.699ZM380.848 159.568h-8.517v-5.81c-1.512 2.176-3.435 3.854-5.77 5.034-2.335 1.18-4.988 1.77-7.959 1.771-3.661 0-6.905-.935-9.73-2.806-2.826-1.87-5.048-4.444-6.666-7.72-1.619-3.277-2.428-7.024-2.428-11.243 0-4.244.823-7.999 2.468-11.262 1.644-3.263 3.919-5.823 6.825-7.681 2.905-1.857 6.241-2.785 10.008-2.786 2.839 0 5.386.551 7.641 1.652a15.098 15.098 0 0 1 5.611 4.676v-5.333h8.517v41.508Zm-8.676-26.982c-.929-2.361-2.395-4.225-4.397-5.592-2.004-1.366-4.318-2.049-6.945-2.049-3.714 0-6.673 1.247-8.874 3.741-2.203 2.494-3.304 5.863-3.303 10.108 0 4.272 1.061 7.655 3.183 10.149 2.123 2.494 5.001 3.74 8.636 3.74 2.68 0 5.067-.69 7.164-2.069 2.095-1.379 3.607-3.236 4.536-5.572v-12.456ZM99.53 140.645c0 3.368.739 5.955 1.705 7.519 1.267 2.05 3.157 2.918 5.084 2.918 2.485 0 4.758-.617 9.139-6.676 3.51-4.857 7.646-11.674 10.429-15.948l4.712-7.24c3.274-5.028 7.063-10.618 11.407-14.407 3.547-3.093 7.372-4.811 11.223-4.811 6.464 0 12.622 3.746 17.334 10.772 5.157 7.694 7.661 17.386 7.661 27.388 0 5.946-1.172 10.315-3.166 13.766-1.927 3.338-5.682 6.673-11.999 6.673v-9.517c5.409 0 6.759-4.97 6.759-10.658 0-8.106-1.89-17.101-6.054-23.529-2.954-4.559-6.783-7.345-10.995-7.345-4.556 0-8.223 3.436-12.343 9.563-2.191 3.256-4.439 7.222-6.964 11.699l-2.78 4.924c-5.584 9.9-6.998 12.155-9.79 15.877-4.894 6.516-9.072 8.986-14.573 8.986-6.526 0-10.652-2.826-13.208-7.084-2.086-3.47-3.111-8.023-3.111-13.211l9.53.341Z"/><path d="M97.513 113.444c4.369-6.735 10.674-11.444 17.905-11.444 4.188 0 8.352 1.239 12.699 4.789 4.755 3.881 9.824 10.272 16.147 20.804l2.267 3.78c5.474 9.118 8.588 13.809 10.41 16.021 2.344 2.841 3.985 3.688 6.118 3.688 5.409 0 6.758-4.97 6.758-10.658l8.407-.264c0 5.946-1.172 10.315-3.166 13.766-1.927 3.338-5.682 6.673-11.999 6.673-3.927 0-7.407-.853-11.254-4.482-2.957-2.786-6.415-7.735-9.075-12.183l-7.912-13.217c-3.97-6.633-7.612-11.579-9.72-13.819-2.267-2.408-5.182-5.317-9.833-5.317-3.764 0-6.961 2.642-9.637 6.683l-8.115-4.82Z"/><path d="M115.265 111.581c-3.764 0-6.961 2.642-9.637 6.683-3.782 5.709-6.099 14.214-6.099 22.381 0 3.368.74 5.955 1.706 7.519l-8.124 5.351c-2.086-3.47-3.111-8.023-3.111-13.211 0-9.434 2.59-19.267 7.514-26.86 4.368-6.735 10.673-11.444 17.904-11.444l-.153 9.581Z"/></g><defs><clipPath id="a"><path fill="#fff" d="M90 102h290.848v58.599H90z"/></clipPath></defs></svg>

<svg width="470" height="262" viewBox="0 0 470 262" fill="none" xmlns="http://www.w3.org/2000/svg">
<g clip-path="url(#clip0_1_121)">
<path d="M196.749 103.853H207.772L226.516 137.759L245.26 103.853H256.045V159.568H247.051V116.866L230.615 146.435H222.178L205.742 116.866V159.568H196.749V103.853Z" fill="white"/>
<path d="M285.056 160.563C280.89 160.563 277.229 159.641 274.072 157.797C270.915 155.953 268.454 153.4 266.69 150.136C264.925 146.873 264.043 143.132 264.044 138.914C264.044 134.643 264.906 130.862 266.63 127.572C268.355 124.282 270.749 121.709 273.814 119.851C276.878 117.994 280.4 117.066 284.38 117.065C288.332 117.065 291.735 118.001 294.587 119.871C297.439 121.742 299.634 124.362 301.174 127.731C302.712 131.101 303.481 135.054 303.482 139.59V142.057H272.958C273.515 145.454 274.888 148.127 277.077 150.076C279.266 152.027 282.032 153.002 285.374 153.001C288.054 153.001 290.362 152.603 292.299 151.808C294.235 151.012 296.053 149.805 297.751 148.186L302.527 154.036C297.777 158.388 291.954 160.564 285.056 160.563ZM291.623 127.512C289.738 125.589 287.271 124.627 284.22 124.627C281.249 124.627 278.761 125.608 276.759 127.572C274.755 129.535 273.488 132.175 272.958 135.491H294.846C294.581 132.095 293.506 129.435 291.623 127.512Z" fill="white"/>
<path d="M314.387 125.423H306.109V118.06H314.387V105.883H323.063V118.06H335.638V125.423H323.063V144.087C323.063 147.191 323.593 149.406 324.654 150.733C325.715 152.06 327.532 152.723 330.107 152.723C331.247 152.723 332.215 152.676 333.012 152.584C333.808 152.491 334.683 152.365 335.638 152.205V159.488C334.548 159.803 333.438 160.043 332.315 160.205C331.03 160.394 329.733 160.487 328.435 160.483C319.069 160.483 314.387 155.363 314.387 145.122V125.423Z" fill="white"/>
<path d="M380.848 159.568H372.331V153.758C370.819 155.934 368.896 157.612 366.561 158.792C364.226 159.972 361.573 160.562 358.602 160.563C354.941 160.563 351.697 159.628 348.872 157.757C346.046 155.887 343.824 153.313 342.206 150.037C340.587 146.76 339.778 143.013 339.778 138.794C339.778 134.55 340.601 130.795 342.246 127.532C343.89 124.269 346.165 121.709 349.071 119.851C351.976 117.994 355.312 117.066 359.079 117.065C361.918 117.065 364.465 117.616 366.72 118.717C368.945 119.793 370.872 121.399 372.331 123.393V118.06H380.848V159.568ZM372.172 132.586C371.243 130.225 369.777 128.361 367.775 126.994C365.771 125.628 363.457 124.945 360.83 124.945C357.116 124.945 354.157 126.192 351.956 128.686C349.753 131.18 348.652 134.549 348.653 138.794C348.653 143.066 349.714 146.449 351.836 148.943C353.959 151.437 356.837 152.683 360.472 152.683C363.152 152.683 365.539 151.993 367.636 150.614C369.731 149.235 371.243 147.378 372.172 145.042L372.172 132.586Z" fill="white"/>
<path d="M99.5293 140.645C99.5293 144.013 100.269 146.6 101.235 148.164C102.502 150.214 104.392 151.082 106.319 151.082C108.804 151.082 111.077 150.465 115.458 144.406C118.968 139.549 123.104 132.732 125.887 128.458L130.599 121.218C133.873 116.19 137.662 110.6 142.006 106.811C145.553 103.718 149.378 102 153.229 102C159.693 102 165.851 105.746 170.563 112.772C175.72 120.466 178.224 130.158 178.224 140.16C178.224 146.106 177.052 150.475 175.058 153.926C173.131 157.264 169.376 160.599 163.059 160.599V151.082C168.468 151.082 169.818 146.112 169.818 140.424C169.818 132.318 167.928 123.323 163.764 116.895C160.81 112.336 156.981 109.55 152.769 109.55C148.213 109.55 144.546 112.986 140.426 119.113C138.235 122.369 135.987 126.335 133.462 130.812L130.682 135.736C125.098 145.636 123.684 147.891 120.892 151.613C115.998 158.129 111.82 160.599 106.319 160.599C99.7931 160.599 95.6666 157.773 93.111 153.515C91.0247 150.045 90 145.492 90 140.304L99.5293 140.645Z" fill="white"/>
<path d="M97.5135 113.444C101.882 106.709 108.187 102 115.418 102C119.606 102 123.77 103.239 128.117 106.789C132.872 110.67 137.941 117.061 144.264 127.593L146.531 131.373C152.005 140.491 155.119 145.182 156.941 147.394C159.285 150.235 160.926 151.082 163.059 151.082C168.468 151.082 169.817 146.112 169.817 140.424L178.224 140.16C178.224 146.106 177.052 150.475 175.058 153.926C173.131 157.264 169.376 160.599 163.059 160.599C159.132 160.599 155.652 159.746 151.805 156.117C148.848 153.331 145.39 148.382 142.73 143.934L134.818 130.717C130.848 124.084 127.206 119.138 125.098 116.898C122.831 114.49 119.916 111.581 115.265 111.581C111.501 111.581 108.304 114.223 105.628 118.264L97.5135 113.444Z" fill="white"/>
<path d="M115.265 111.581C111.501 111.581 108.304 114.223 105.628 118.264C101.846 123.973 99.5293 132.478 99.5293 140.645C99.5293 144.013 100.269 146.6 101.235 148.164L93.111 153.515C91.0247 150.045 90 145.492 90 140.304C90 130.87 92.5894 121.037 97.5136 113.444C101.882 106.709 108.187 102 115.418 102L115.265 111.581Z" fill="white"/>
</g>
<defs>
<clipPath id="clip0_1_121">
<rect width="290.848" height="58.5991" fill="white" transform="translate(90 102)"/>
</clipPath>
</defs>
</svg>
